svg/free/view-module.svg

<svg version="1.1" xmlns="http://www.w3.org/2000/svg" width="24" height="24" viewBox="0 0 24 24">
<title>view-module</title>
<path d="M0.75 3v18h22.5v-18zM21.75 11.25h-5.25v-6.75h5.25zM9 11.25v-6.75h6v6.75zM15 12.75v6.75h-6v-6.75zM7.5 4.5v6.75h-5.25v-6.75zM2.25 12.75h5.25v6.75h-5.25zM16.5 19.5v-6.75h5.25v6.75z"></path>
</svg>

<svg xmlns="http://www.w3.org/2000/svg" width="24" height="24" viewBox="0 0 24 24"><path d="M.75 3v18h22.5V3zm21 8.25H16.5V4.5h5.25zM9 11.25V4.5h6v6.75zm6 1.5v6.75H9v-6.75zM7.5 4.5v6.75H2.25V4.5zm-5.25 8.25H7.5v6.75H2.25zM16.5 19.5v-6.75h5.25v6.75z"/></svg>
